X:1
T:Old Toasty
M:C|
L:1/8
Q:80
C:Angus Lawrie
S:Hornpipe
K:HP
a | \
{AGAG}A{g}A{gcd}c3/4B/4{g}A3/4{d}c/4 | \
{gef}e{g}c/4e3/4{gfg}f{g}e3/4f/4 | \
{ag}a{g}a{fg}f{g}e3/4f/4 |
a3/4f/4{g}e3/4c/4{gBd}B|2 a:|2
{AGAG}A{g}A{gcd}c3/4B/4{g}A3/4{d}c/4 | \
{gef}e{g}c/4e3/4{gfg}f{g}e3/4f/4 |
{ag}a{g}a{fg}f{g}e3/4c/4 | \
{gBd}B{e}A{GAG}A :| \
{g}f3/4g/4 |
{ag}a{g}a{fg}f{g}e3/4c/4 | \
{g}e3/4f/4a3/4e/4{gfg}f{g}e3/4f/4 | \
{ag}a{g}a{fg}f{g}e3/4f/4 |
a3/4f/4{g}e3/4c/4{gBd}B|1 {g}f3/4g/4|1
{ag}a{g}a{fg}f{g}e3/4c/4 | \
{g}e3/4f/4a3/4e/4{gfg}f{g}e3/4f/4 |
{ag}a{g}a{fg}f{g}e3/4f/4 | \
{gBd}B{e}A{GAG}A :| \
a |
c3/4{d}c/4{e}c3/4B/4{g}A3/4{d}A/4{e}A3/4{d}c/4 | \
{gef}e{g}c/4e3/4{gfg}f{g}e3/4f/4 | \
{ag}a{g}a{fg}f{g}e3/4f/4 |
a3/4f/4{g}e3/4c/4{gBd}Ba | \
c3/4{d}c/4{e}c3/4B/4{g}A3/4{d}A/4{e}A3/4{d}c/4 | \
{gef}e{g}c/4e3/4{gfg}f{g}e3/4f/4 |
{ag}a{g}a{fg}f{g}e3/4c/4 | \
{gBd}B{e}A{GAG}A :| \
{g}c3/4d/4 |
{g}e3/4f/4{gef}e3/4c/4{ag}ae | \
{g}e3/4f/4a3/4e/4{gfg}f{g}e3/4f/4 | \
{ag}a{g}a{fg}f{g}e3/4f/4 |
a3/4f/4{g}e3/4c/4{gBd}B|1 {g}c3/4d/4|1
{g}e3/4f/4{gef}e3/4c/4{ag}ae | \
{g}e3/4f/4a3/4e/4{gfg}f{g}e3/4f/4 |
{ag}a{g}a{fg}f{g}e3/4f/4 | \
{gBd}B{e}A{GAG}A :|
